src/assets/wed_icon/icon_28/edit_default.svg

<svg width="28" height="28" viewBox="0 0 28 28" fill="none" xmlns="http://www.w3.org/2000/svg">
<path d="M23.8844 8.15545L22.536 9.48493L20.5166 7.46553L18.5047 5.45362L19.8656 4.11175C20.3548 3.62947 21.1414 3.63224 21.6271 4.11797L23.8906 6.38147C24.3812 6.87206 24.3784 7.66833 23.8844 8.15545ZM17.4418 6.51205L19.4559 8.52619L21.4731 10.5434L14.4183 17.6389C14.2278 17.8304 13.9805 17.955 13.7133 17.9943L9.73389 18.5783C9.56821 18.6026 9.42593 18.4603 9.45024 18.2946L10.0351 14.3088C10.074 14.0441 10.1968 13.7987 10.3855 13.609L17.4418 6.51205Z" stroke="#A9AABC" stroke-width="1.5"/>
<path fill-rule="evenodd" clip-rule="evenodd" d="M3 8C3 5.23858 5.23858 3 8 3H12.5395C12.9537 3 13.2895 3.33579 13.2895 3.75C13.2895 4.16421 12.9537 4.5 12.5395 4.5H8C6.067 4.5 4.5 6.067 4.5 8V20C4.5 21.933 6.067 23.5 8 23.5H20C21.933 23.5 23.5 21.933 23.5 20V17.0789C23.5 16.6647 23.8358 16.3289 24.25 16.3289C24.6642 16.3289 25 16.6647 25 17.0789V20C25 22.7614 22.7614 25 20 25H8C5.23858 25 3 22.7614 3 20V8Z" fill="#A9AABC"/>
</svg>

<svg xmlns="http://www.w3.org/2000/svg" width="28" height="28" fill="none"><path stroke="#A9AABC" stroke-width="1.5" d="m23.884 8.155-1.348 1.33-2.02-2.02-2.011-2.011 1.36-1.342a1.25 1.25 0 0 1 1.762.006l2.264 2.263a1.25 1.25 0 0 1-.007 1.774Zm-6.442-1.643 2.014 2.014 2.017 2.017-7.055 7.096c-.19.191-.437.316-.705.355l-3.98.584a.25.25 0 0 1-.283-.283l.585-3.986a1.25 1.25 0 0 1 .35-.7z"/><path fill="#A9AABC" fill-rule="evenodd" d="M3 8a5 5 0 0 1 5-5h4.54a.75.75 0 0 1 0 1.5H8A3.5 3.5 0 0 0 4.5 8v12A3.5 3.5 0 0 0 8 23.5h12a3.5 3.5 0 0 0 3.5-3.5v-2.921a.75.75 0 0 1 1.5 0V20a5 5 0 0 1-5 5H8a5 5 0 0 1-5-5z" clip-rule="evenodd"/></svg>
